src/assets/logo/lorry-blue.svg

<svg
    fill="none"
    height="46"
    viewBox="0 0 266 117"
    width="103"
    xmlns="http://www.w3.org/2000/svg"
>
    <g clipPath="url(#clip0_304_2)">
        <path
            d="M66.6949 83.1572C55.8943 83.1952 36.4744 83.2105 34.6671 83.0951C33.003 82.897 30.4899 82.5844 28.9144 81.2435C26.4209 79.573 24.4756 76.4338 22.8835 71.409C22.1411 69.0808 21.0771 66.4962 15.7128 48.6748L0.000244141 58.9949C3.93295 71.2867 5.66823 75.4494 8.44452 83.328C15.2323 102.598 32.7776 99.9363 32.7776 99.9363L58.7587 99.9312L66.6944 83.1577L66.6949 83.1572Z"
            fill="#FEFEFE"
        />
        <path
            d="M35.1889 0L74.961 0.229582C73.4532 8.85019 72.4024 17.5015 70.1748 25.4896L50.9027 25.5028V29.8997H68.7381C67.4807 35.3386 64.603 44.6445 60.8841 51.6785H41.2747V51.8165H41.0349L41.2747 56.0768H58.7642C55.9049 62.2981 48.626 73.798 40.1417 79.6522C39.9866 79.6862 36.013 79.9959 34.7523 79.4358C30.6211 78.3888 29.1379 75.1312 27.8593 72.9619C27.2566 71.9384 26.0597 68.4751 26.0597 68.4751L19.3813 46.275C31.2182 33.8005 35.0219 16.8161 35.1884 0H35.1889Z"
            fill="#FEFEFE"
        />
        <path
            d="M204.487 100.355H251.982L255.833 86.0767H208.058L204.487 100.355Z"
            fill="#FEFEFE"
        />
        <path
            d="M152.854 68.6718C152.869 68.6172 152.872 68.6066 152.886 68.5525C152.893 68.5525 152.924 68.5525 152.935 68.5525C152.909 68.6015 152.88 68.6373 152.854 68.6718ZM186.078 68.6718C186.094 68.6172 186.099 68.6066 186.112 68.5525C186.12 68.5525 186.151 68.5525 186.161 68.5525C186.13 68.6015 186.104 68.6373 186.078 68.6718Z"
            fill="#16498B"
        />
        <path
            d="M83.9191 31.3152L55.3257 99.8814H91.9625L99.063 82.966C99.063 82.966 87.3223 82.966 82.5595 82.966C86.5258 73.4539 104.101 31.3152 104.101 31.3152H83.9195H83.9191Z"
            fill="#FEFEFE"
        />
        <path
            d="M121.697 99.8213L139.871 99.8085C139.871 99.8085 142.919 92.8112 144.653 88.8333C145.338 92.5454 146.677 99.7983 146.677 99.7983H165.424C165.424 99.7983 162.481 85.6886 161.577 81.3491C163.628 80.2191 165.552 78.9208 167.188 77.2775C169.915 74.5353 171.786 71.1342 172.753 67.1695C173.048 65.9603 173.204 64.8477 173.249 63.831C173.437 59.607 171.707 56.9857 170.029 55.4519C167.42 53.056 163.64 51.871 158.486 51.8374L142.669 51.7305L121.698 99.8213H121.697Z"
            fill="#FEFEFE"
        />
        <path
            d="M156.422 99.8319L174.591 99.7914C174.591 99.7914 177.644 92.7821 179.377 88.8043C180.069 92.544 181.421 99.8319 181.421 99.8319L200.234 99.7901C200.234 99.7901 197.24 85.6885 196.317 81.3422C198.364 80.2118 200.283 78.9152 201.915 77.277C204.64 74.5378 206.511 71.1375 207.481 67.1729C207.776 65.9619 207.932 64.8528 207.978 63.8344C208.165 59.6158 206.439 56.9929 204.764 55.4565C202.149 53.0555 198.369 51.8705 193.212 51.8369L177.398 51.73L156.423 99.8314L156.422 99.8319Z"
            fill="#FEFEFE"
        />
        <path
            d="M226.468 54.4151C226.468 54.4151 223.184 58.2409 220.565 61.2928C219.853 58.2588 218.332 51.767 218.332 51.767L199.875 51.7393C199.875 51.7393 205.41 76.0482 205.948 78.41C205.048 80.7565 191.544 116.328 191.544 116.328L218.731 94.551C218.731 94.551 223.439 83.3296 223.99 82.0275C225.051 80.8583 265.476 39.3193 265.476 39.3193L226.469 54.4155L226.468 54.4151Z"
            fill="#FEFEFE"
        />
        <path
            d="M113.544 52.5193L113.54 52.521C110.175 53.9781 107.087 56.0716 104.365 58.7461C101.682 61.3576 99.3372 64.4742 97.4132 67.9907C95.5352 71.4204 94.0836 75.1171 93.0989 78.9791C91.5527 85.0492 91.896 90.1026 94.1177 93.9995C95.7503 96.8682 99.2494 100.386 106.64 100.832C110.47 101.062 114.116 100.449 117.476 99.0073C120.69 97.6234 123.747 95.5555 126.569 92.855C129.213 90.3139 131.563 87.2173 133.561 83.6415C135.528 80.1151 137.046 76.2766 138.074 72.2301C139.601 66.2354 139.247 61.2315 137.024 57.3605C134.635 53.22 130.416 50.945 124.477 50.5911C120.712 50.3632 117.032 51.0127 113.544 52.5193Z"
            fill="#FEFEFE"
        />
        <path
            d="M89.0215 95.3463H62.0569L86.8675 35.8501H97.3682L75.934 86.8607H92.4209L89.0215 95.3463Z"
            fill="#16498B"
        />
        <path
            d="M168.344 66.2828C167.582 69.4075 166.148 72.0313 164.041 74.1512C161.93 76.2711 159.384 77.865 156.394 78.9273L159.8 95.263H150.493L147.869 81.0472L143.218 80.951L136.976 95.2749L128.548 95.2817L145.553 56.2869L158.254 56.3725C162.233 56.3985 165.109 57.2295 166.884 58.8595C168.666 60.4896 169.153 62.9652 168.344 66.2828ZM158.875 67.9091C159.26 66.3412 159.105 65.2269 158.428 64.5706C157.745 63.9086 156.588 63.5743 154.952 63.5611L150.796 63.5338L146.229 74L150.361 74.0286C152.585 74.0413 154.441 73.5102 155.933 72.4296C157.423 71.3485 158.405 69.8411 158.875 67.9091H158.875Z"
            fill="#16498B"
        />
        <path
            d="M203.073 66.2828C202.308 69.4075 200.874 72.0313 198.767 74.1512C196.656 76.2711 194.108 77.865 191.123 78.9273L194.591 95.2685L185.232 95.2894L182.593 81.0472L177.901 81.0148L171.693 95.2634L163.278 95.2817L180.282 56.2869L192.981 56.3725C196.961 56.3985 199.839 57.2295 201.614 58.8595C203.393 60.4896 203.883 62.9652 203.074 66.2828H203.073ZM193.604 67.9091C193.985 66.3412 193.833 65.2269 193.152 64.5706C192.474 63.9086 191.317 63.5743 189.681 63.5611L185.525 63.5338L180.958 74L185.087 74.0286C187.314 74.0413 189.172 73.5102 190.664 72.4296C192.15 71.3485 193.134 69.8411 193.604 67.9091Z"
            fill="#16498B"
        />
        <path
            d="M246.725 51.1208L220.136 79.6691L215.539 90.5374L201.382 102.806L210.681 78.5544L205.61 56.2837L214.686 56.2965L218.119 70.9556L229.209 58.0351L246.725 51.1208Z"
            fill="#16498B"
        />
        <path
            d="M133.666 71.4778C132.735 75.146 131.384 78.5544 129.628 81.7017C127.869 84.8485 125.851 87.5192 123.566 89.7158C121.178 91.9997 118.655 93.7158 115.988 94.8641C113.315 96.0099 110.421 96.4921 107.3 96.3042C102.851 96.0363 99.7912 94.4407 98.1241 91.5115C96.4548 88.5832 96.2512 84.659 97.5069 79.7356C98.3945 76.2535 99.6805 72.9725 101.368 69.8904C103.054 66.8095 105.067 64.1274 107.418 61.8384C109.7 59.5958 112.241 57.8708 115.044 56.6572C117.846 55.4476 120.772 54.9347 123.82 55.1183C128.29 55.385 131.355 56.9656 133.025 59.859C134.689 62.7537 134.903 66.6247 133.666 71.4778ZM117.954 83.5375C119.182 81.9649 120.253 80.2262 121.158 78.3265C122.069 76.4264 122.875 74.0948 123.581 71.333C124.187 68.9452 124.254 67.0855 123.786 65.7472C123.314 64.4128 122.212 63.6925 120.473 63.5886C119.128 63.5076 117.833 63.8646 116.595 64.6628C115.354 65.461 114.145 66.6225 112.962 68.1538C111.863 69.5713 110.829 71.3462 109.863 73.4793C108.897 75.6107 108.123 77.8141 107.543 80.0874C106.866 82.7555 106.83 84.6918 107.444 85.8934C108.053 87.0962 109.148 87.7437 110.726 87.8382C111.88 87.9059 113.093 87.5622 114.368 86.8019C115.641 86.0442 116.84 84.9542 117.955 83.5375H117.954Z"
            fill="#16498B"
        />
    </g>
    <defs>
        <clipPath id="clip0_304_2">
            <rect fill="white" height="116.328" width="265.476" />
        </clipPath>
    </defs>
</svg>

<svg xmlns="http://www.w3.org/2000/svg" fill="none" viewBox="0 0 266 117">
    <path fill="#FEFEFE" d="M66.695 83.157c-10.8.038-30.22.053-32.028-.062-1.664-.198-4.177-.51-5.753-1.852-2.493-1.67-4.438-4.81-6.03-9.834-.743-2.328-1.807-4.913-7.171-22.734L0 58.995c3.933 12.292 5.668 16.454 8.445 24.333 6.787 19.27 24.333 16.608 24.333 16.608l25.98-.005 7.936-16.773Z"/>
    <path fill="#FEFEFE" d="M35.189 0 74.96.23c-1.508 8.62-2.559 17.271-4.786 25.26l-19.272.013V29.9h17.835c-1.257 5.439-4.135 14.745-7.854 21.779h-19.61v.137h-.24l.24 4.26h17.49c-2.86 6.222-10.138 17.722-18.622 23.576-.155.034-4.129.344-5.39-.216-4.13-1.047-5.614-4.305-6.893-6.474-.602-1.024-1.8-4.487-1.8-4.487l-6.678-22.2C31.218 33.801 35.021 16.816 35.188 0ZM204.487 100.355h47.495l3.851-14.278h-47.775l-3.571 14.278Z"/>
    <path fill="#16498B" d="m152.854 68.672.032-.12h.049c-.026.05-.055.085-.081.12Zm33.224 0c.016-.055.021-.065.034-.12h.049a1.677 1.677 0 0 1-.083.12Z"/>
    <path fill="#FEFEFE" d="M83.92 31.315 55.325 99.881h36.637l7.1-16.915H82.559l21.542-51.65H83.92ZM121.697 99.821l18.174-.013 4.782-10.975 2.024 10.965h18.747l-3.847-18.449c2.051-1.13 3.975-2.428 5.611-4.072 2.727-2.742 4.598-6.143 5.565-10.108.295-1.209.451-2.321.496-3.338.188-4.224-1.542-6.845-3.22-8.38-2.609-2.395-6.389-3.58-11.543-3.614l-15.817-.107-20.971 48.091h-.001Z"/>
    <path fill="#FEFEFE" d="m156.422 99.832 18.169-.04 4.786-10.988c.692 3.74 2.044 11.028 2.044 11.028l18.813-.042-3.917-18.448c2.047-1.13 3.966-2.427 5.598-4.065 2.725-2.74 4.596-6.14 5.566-10.104.295-1.211.451-2.32.497-3.339.187-4.218-1.539-6.841-3.214-8.378-2.615-2.4-6.395-3.586-11.552-3.62l-15.814-.106-20.975 48.101h-.001Z"/>
    <path fill="#FEFEFE" d="m226.468 54.415-5.903 6.878-2.233-9.526-18.457-.028 6.073 26.671c-.9 2.347-14.404 37.918-14.404 37.918l27.187-21.777s4.708-11.221 5.259-12.523c1.061-1.17 41.486-42.709 41.486-42.709l-39.007 15.096h-.001ZM113.544 52.52l-.004.001c-3.365 1.457-6.453 3.55-9.175 6.225-2.683 2.612-5.028 5.728-6.952 9.245A47.13 47.13 0 0 0 93.1 78.979c-1.546 6.07-1.203 11.124 1.019 15.02 1.632 2.87 5.131 6.387 12.522 6.833 3.83.23 7.476-.383 10.836-1.825 3.214-1.384 6.271-3.452 9.093-6.152 2.644-2.541 4.994-5.638 6.992-9.214 1.967-3.526 3.485-7.364 4.513-11.41 1.527-5.996 1.173-11-1.05-14.87-2.389-4.141-6.608-6.416-12.547-6.77a23.722 23.722 0 0 0-10.933 1.928Z"/>
    <path fill="#16498B" d="M89.022 95.346H62.056l24.81-59.496h10.501L75.934 86.86h16.487l-3.4 8.486ZM168.344 66.283c-.762 3.124-2.196 5.748-4.303 7.868-2.111 2.12-4.657 3.714-7.647 4.776l3.406 16.336h-9.307l-2.624-14.216-4.651-.096-6.242 14.324-8.428.007 17.005-38.995 12.701.086c3.979.026 6.855.857 8.63 2.486 1.782 1.63 2.269 4.106 1.46 7.424Zm-9.469 1.626c.385-1.568.23-2.682-.447-3.338-.683-.662-1.84-.997-3.476-1.01l-4.156-.027L146.229 74l4.132.029c2.224.012 4.08-.519 5.572-1.6 1.49-1.08 2.472-2.588 2.942-4.52ZM203.073 66.283c-.765 3.124-2.199 5.748-4.306 7.868-2.111 2.12-4.659 3.714-7.644 4.776l3.468 16.341-9.359.021-2.639-14.242-4.692-.032-6.208 14.248-8.415.019 17.004-38.995 12.699.086c3.98.026 6.858.857 8.633 2.486 1.779 1.63 2.269 4.106 1.46 7.424h-.001Zm-9.469 1.626c.381-1.568.229-2.682-.452-3.338-.678-.662-1.835-.997-3.471-1.01l-4.156-.027L180.958 74l4.129.029c2.227.012 4.085-.519 5.577-1.6 1.486-1.08 2.47-2.588 2.94-4.52ZM246.725 51.12l-26.589 28.55-4.597 10.867-14.157 12.269 9.299-24.252-5.071-22.27 9.076.013 3.433 14.659 11.09-12.92 17.516-6.915ZM133.666 71.478c-.931 3.668-2.282 7.076-4.038 10.224-1.759 3.147-3.777 5.817-6.062 8.014-2.388 2.284-4.911 4-7.578 5.148-2.673 1.146-5.567 1.628-8.688 1.44-4.449-.268-7.509-1.863-9.176-4.793-1.67-2.928-1.873-6.852-.617-11.775a42.018 42.018 0 0 1 3.861-9.846c1.686-3.08 3.699-5.763 6.05-8.052 2.282-2.242 4.823-3.967 7.626-5.18a18.97 18.97 0 0 1 8.776-1.54c4.47.267 7.535 1.848 9.205 4.741 1.664 2.895 1.878 6.766.641 11.619Zm-15.712 12.06a28.016 28.016 0 0 0 3.204-5.212c.911-1.9 1.717-4.231 2.423-6.993.606-2.388.673-4.248.205-5.586-.472-1.334-1.574-2.054-3.313-2.158-1.345-.081-2.64.276-3.878 1.074-1.241.798-2.45 1.96-3.633 3.49-1.099 1.418-2.133 3.193-3.099 5.326a39.837 39.837 0 0 0-2.32 6.608c-.677 2.668-.713 4.605-.099 5.806.609 1.203 1.704 1.85 3.282 1.945 1.154.068 2.367-.276 3.642-1.036 1.273-.758 2.472-1.848 3.587-3.265h-.001Z"/>
</svg>
